azure-icons/command-1111-Details.svg

<svg xmlns="http://www.w3.org/2000/svg" width="16" height="16" viewBox="0 0 32 32"><path d="M7.8 21.8H1.9V2h16.4v9a11.7 11.7 0 012 .5V0H-.1v23.8h8.3a17.66 17.66 0 01-.4-2z"/><path d="M4.2 4.5h12v2h-12zM4.2 9.5h12v2h-12zM28.5 30.3l-6-5.7A7.32 7.32 0 0022 15a7.21 7.21 0 00-10.2 10.2 7.11 7.11 0 005.1 2.1 6.9 6.9 0 004.5-1.6l5.7 6a1 1 0 001.4-.1 1 1 0 000-1.3zm-15.3-6.5a5.19 5.19 0 010-7.3 5.14 5.14 0 013.7-1.5 5.3 5.3 0 013.7 1.5 5.19 5.19 0 010 7.3 5.31 5.31 0 01-7.4 0z"/></svg>

<svg id="e3fb2540-77a4-4cad-ad53-dd87996b3ad3" xmlns="http://www.w3.org/2000/svg" width="16" height="16" viewBox="0 0 32 32">
  <title>Icon-command-1111-Artboard 1</title>
  <path d="M7.8,21.8H1.9V2H18.3v9a11.7,11.7,0,0,1,2,.5V0H-.1V23.8H8.2A17.66,17.66,0,0,1,7.8,21.8Z"/>
  <rect x="4.2" y="4.5" width="12" height="2"/>
  <rect x="4.2" y="9.5" width="12" height="2"/>
  <path d="M28.5,30.3l-6-5.7A7.32,7.32,0,0,0,22,15,7.21,7.21,0,0,0,11.8,25.2a7.11,7.11,0,0,0,5.1,2.1,6.9,6.9,0,0,0,4.5-1.6l5.7,6a1,1,0,0,0,1.4-.1A1,1,0,0,0,28.5,30.3ZM13.2,23.8a5.19,5.19,0,0,1,0-7.3A5.14,5.14,0,0,1,16.9,15a5.3,5.3,0,0,1,3.7,1.5,5.19,5.19,0,0,1,0,7.3A5.31,5.31,0,0,1,13.2,23.8Z"/>
</svg>
